svgs/light/folders.svg

<svg xmlns="http://www.w3.org/2000/svg" viewBox="0 0 576 512"><!--! Font Awesome Pro 6.6.0 by @fontawesome - https://fontawesome.com License - https://fontawesome.com/license (Commercial License) Copyright 2024 Fonticons, Inc. --><path d="M512 352l-352 0c-17.7 0-32-14.3-32-32l0-224c0-17.7 14.3-32 32-32l117.5 0c8.5 0 16.6 3.4 22.6 9.4l26.5 26.5c18 18 42.4 28.1 67.9 28.1L512 128c17.7 0 32 14.3 32 32l0 160c0 17.7-14.3 32-32 32zM349.3 77.3L322.7 50.7c-12-12-28.3-18.7-45.3-18.7L160 32c-35.3 0-64 28.7-64 64l0 224c0 35.3 28.7 64 64 64l352 0c35.3 0 64-28.7 64-64l0-160c0-35.3-28.7-64-64-64L394.5 96c-17 0-33.3-6.7-45.3-18.7zM32 112c0-8.8-7.2-16-16-16s-16 7.2-16 16L0 352c0 70.7 57.3 128 128 128l336 0c8.8 0 16-7.2 16-16s-7.2-16-16-16l-336 0c-53 0-96-43-96-96l0-240z"/></svg>

<svg xmlns="http://www.w3.org/2000/svg" viewBox="0 0 576 512"><!--! Font Awesome Pro 6.4.0 by @fontawesome - https://fontawesome.com License - https://fontawesome.com/license (Commercial License) Copyright 2023 Fonticons, Inc. --><path d="M512 352H160c-17.7 0-32-14.3-32-32V96c0-17.7 14.3-32 32-32H277.5c8.5 0 16.6 3.4 22.6 9.4l26.5 26.5c18 18 42.4 28.1 67.9 28.1H512c17.7 0 32 14.3 32 32V320c0 17.7-14.3 32-32 32zM349.3 77.3L322.7 50.7c-12-12-28.3-18.7-45.3-18.7H160c-35.3 0-64 28.7-64 64V320c0 35.3 28.7 64 64 64H512c35.3 0 64-28.7 64-64V160c0-35.3-28.7-64-64-64H394.5c-17 0-33.3-6.7-45.3-18.7zM32 112c0-8.8-7.2-16-16-16s-16 7.2-16 16V352c0 70.7 57.3 128 128 128H464c8.8 0 16-7.2 16-16s-7.2-16-16-16H128c-53 0-96-43-96-96V112z"/></svg>
